X: 6190
T: Cardin' O't, The
R: reel
M: 4/4
K: Fmajor
A>G|F3 G A3 B|c2 (f<d) (c<A) (GF)|B3 d (cA) (GF)|(EF) ((GA)) G3 A|
BA Bc (de) (fd)|(cA) (GF){F} E2 DC|F3 G (Ac) ((GB))|A2 F2 F2||
(fd)|(cA) (FA) c3 d|cA FA c2 (BA)|BA Bc de fg|e2 c2 c3 B/A/|
(BA) (Bc) (de) (fd)|cA GF{F} E2 DC|F3 G (Ac) ((GB))|A2 F2 F2||

